X: 6992
T: Chicken
R: reel
M: 4/4
K: Dmajor
f>dA>F D>FB>F|(3AAA B>F A2 e2|f>dA>F D>FB>F|A>dd>c d3:|
(3fff a>f (3ded f>d|A>df>d e>dB>d|f>aa>f d3 B|A>dd>c d3 e|
f>a (3aaf d2 f>d|A>df>d e>dB>g|(3fed (3edc d>cB>A|(3Bcd e>c d3||

